webroot/img/new-desgin/double-arrow-icon.svg

<svg width="40" height="40" viewBox="0 0 40 40" fill="none" xmlns="http://www.w3.org/2000/svg">
<g id="Frame">
<g id="Group">
<path id="Vector" d="M38.4367 16.2267L27.77 5.56C25.6927 3.48 22.306 3.48 20.2287 5.56C19.2207 6.56533 18.666 7.90667 18.666 9.33067C18.666 10.7547 19.2207 12.096 20.2287 13.1013L27.1247 19.9973L20.2287 26.8933C19.2207 27.9013 18.666 29.24 18.666 30.664C18.666 32.088 19.2207 33.4267 20.2287 34.4347C21.2367 35.4427 22.5753 35.9973 23.9993 35.9973C25.4233 35.9973 26.762 35.4427 27.77 34.4347L38.4367 23.768C39.4447 22.7627 39.9993 21.4213 39.9993 19.9973C39.9993 18.5733 39.4447 17.232 38.4367 16.2267ZM36.5513 21.8827L25.8847 32.5493C24.874 33.5573 23.1247 33.5573 22.114 32.5493C21.074 31.5093 21.074 29.8187 22.114 28.7787L30.8954 19.9973L22.114 11.216C21.61 10.712 21.3327 10.0427 21.3327 9.33067C21.3327 8.61867 21.61 7.94933 22.114 7.44533C22.3613 7.19737 22.6552 7.0007 22.9787 6.86661C23.3023 6.73253 23.6491 6.66368 23.9993 6.664C24.7061 6.66356 25.3842 6.94361 25.8847 7.44267L36.5513 18.1093C37.0553 18.616 37.3327 19.2853 37.3327 19.9973C37.3327 20.7093 37.0553 21.3787 36.5513 21.8827Z" fill="url(#paint0_linear_1019_15861)"/>
<path id="Vector_2" d="M19.7707 16.2267L9.104 5.56C7.02667 3.48 3.64 3.48 1.56267 5.56C0.554667 6.56533 0 7.90667 0 9.33067C0 10.7547 0.554667 12.096 1.56267 13.1013L8.45867 19.9973L1.56267 26.8933C0.554667 27.9013 0 29.24 0 30.664C0 32.088 0.554667 33.4267 1.56267 34.4347C2.57067 35.4427 3.90933 35.9973 5.33333 35.9973C6.75733 35.9973 8.096 35.4427 9.104 34.4347L19.7707 23.768C20.7787 22.7627 21.3333 21.4213 21.3333 19.9973C21.3333 18.5733 20.7787 17.232 19.7707 16.2267ZM17.8853 21.8827L7.21867 32.5493C6.208 33.5573 4.45867 33.5573 3.448 32.5493C2.408 31.5093 2.408 29.8187 3.448 28.7787L12.2293 19.9973L3.448 11.216C2.944 10.712 2.66667 10.0427 2.66667 9.33067C2.66667 8.61867 2.944 7.94933 3.448 7.44533C3.968 6.92533 4.65067 6.664 5.33333 6.664C6.016 6.664 6.69867 6.92533 7.21867 7.44267L17.8853 18.1093C18.3893 18.616 18.6667 19.2853 18.6667 19.9973C18.6667 20.7093 18.3893 21.3787 17.8853 21.8827Z" fill="url(#paint1_linear_1019_15861)"/>
</g>
</g>
<defs>
<linearGradient id="paint0_linear_1019_15861" x1="20.6642" y1="6.92284" x2="49.7647" y2="31.3055" gradientUnits="userSpaceOnUse">
<stop stop-color="#007BC4"/>
<stop offset="1" stop-color="#0B4C97"/>
</linearGradient>
<linearGradient id="paint1_linear_1019_15861" x1="1.99814" y1="6.92284" x2="31.0987" y2="31.3055" gradientUnits="userSpaceOnUse">
<stop stop-color="#007BC4"/>
<stop offset="1" stop-color="#0B4C97"/>
</linearGradient>
</defs>
</svg>

<svg width="40" height="40" fill="none" xmlns="http://www.w3.org/2000/svg"><path d="M38.437 16.227 27.77 5.56a5.337 5.337 0 0 0-7.541 0 5.293 5.293 0 0 0-1.563 3.77c0 1.425.555 2.766 1.563 3.771l6.896 6.896-6.896 6.896a5.297 5.297 0 0 0-1.563 3.771c0 1.424.555 2.763 1.563 3.77a5.297 5.297 0 0 0 3.77 1.563 5.297 5.297 0 0 0 3.771-1.562l10.667-10.667a5.292 5.292 0 0 0 1.562-3.77 5.292 5.292 0 0 0-1.562-3.771Zm-1.886 5.656L25.885 32.549c-1.011 1.008-2.76 1.008-3.771 0a2.668 2.668 0 0 1 0-3.77l8.781-8.782-8.781-8.781a2.648 2.648 0 0 1-.781-1.885c0-.712.277-1.382.781-1.886a2.66 2.66 0 0 1 1.885-.781c.707 0 1.385.28 1.886.779L36.55 18.109a2.66 2.66 0 0 1 .782 1.888c0 .712-.278 1.382-.782 1.886Z" fill="url(#a)"/><path d="M19.77 16.227 9.105 5.56a5.337 5.337 0 0 0-7.541 0A5.292 5.292 0 0 0 0 9.33c0 1.425.555 2.766 1.563 3.771l6.896 6.896-6.896 6.896A5.297 5.297 0 0 0 0 30.664c0 1.424.555 2.763 1.563 3.77a5.297 5.297 0 0 0 3.77 1.563 5.297 5.297 0 0 0 3.771-1.562l10.667-10.667a5.292 5.292 0 0 0 1.562-3.77 5.292 5.292 0 0 0-1.562-3.771Zm-1.885 5.656L7.22 32.549c-1.011 1.008-2.76 1.008-3.771 0a2.668 2.668 0 0 1 0-3.77l8.781-8.782-8.781-8.781a2.648 2.648 0 0 1-.781-1.885c0-.712.277-1.382.781-1.886a2.668 2.668 0 0 1 3.77-.003L17.886 18.11a2.66 2.66 0 0 1 .782 1.888c0 .712-.278 1.382-.782 1.886Z" fill="url(#b)"/><defs><linearGradient id="a" x1="20.664" y1="6.923" x2="49.765" y2="31.305" gradientUnits="userSpaceOnUse"><stop stop-color="#007BC4"/><stop offset="1" stop-color="#0B4C97"/></linearGradient><linearGradient id="b" x1="1.998" y1="6.923" x2="31.099" y2="31.305" gradientUnits="userSpaceOnUse"><stop stop-color="#007BC4"/><stop offset="1" stop-color="#0B4C97"/></linearGradient></defs></svg>
